img/toolbar/func_misalign.svg

<svg height="24" width="24" xmlns="http://www.w3.org/2000/svg" xmlns:xlink="http://www.w3.org/1999/xlink">
  <filter id="a" height="1.247969" width="1.23089" x="-.115445" y="-.123985">
    <feGaussianBlur stdDeviation=".33319131"/>
  </filter>
  <linearGradient id="b">
    <stop offset="0" stop-color="#0e0f55"/>
    <stop offset="1" stop-color="#6a6de8"/>
  </linearGradient>
  <linearGradient id="c" gradientUnits="userSpaceOnUse" x1=".746316" x2="8.309204" xlink:href="#b" y1="12" y2="12"/>
  <linearGradient id="d" gradientUnits="userSpaceOnUse" x1="3.417697" x2="23.230306" y1="12.191525" y2="12.191525">
    <stop offset="0" stop-color="#0e0f55"/>
    <stop offset="1" stop-color="#a5a6f1"/>
  </linearGradient>
  <linearGradient id="e" gradientUnits="userSpaceOnUse" x1="2.21273" x2="18.562609" xlink:href="#b" y1="9.886662" y2="9.886662"/>
  <path d="m0 14.5h25" fill="none" stroke="#182e6d"/>
  <g transform="matrix(.6140783 0 0 .556316 -.458296 .443684)">
    <path d="m8.3092044 23c-1.0008932 0-1.1224194 0-1.807753 0-2.7624651 0-5.75513568-4.927999-5.75513568-11 0-6.072 2.99267058-11 5.75513568-11h1.807753z" fill="url(#c)"/>
    <path d="m22.480306 12.191525a9.1563044 9.1563044 0 1 1 -18.312609 0 9.1563044 9.1563044 0 1 1 18.312609 0z" fill="#7fe1ff" stroke="url(#d)" stroke-width="1.5" transform="matrix(.6399498 0 0 1.1310271 -.034887 -1.788946)"/>
    <path d="m20.207017 13.864919a7.356617 7.356617 0 1 1 -14.713234 0 7.356617 7.356617 0 1 1 14.713234 0z" fill="#42a5c9" transform="matrix(.5868157 0 0 1.06384 1.45746 -2.0538)"/>
    <path d="m10.725712 6.1170263a5.0549564 1.7865229 0 1 1 -10.10991257 0 5.0549564 1.7865229 0 1 1 10.10991257 0z" fill="#fff" transform="matrix(.3119749 -.5892705 .3211621 .5724138 1.873949 7.007667)"/>
    <path d="m21.331295 14.259586a7.1390228 5.9515977 0 1 1 -14.2780456 0 7.1390228 5.9515977 0 1 1 14.2780456 0z" fill="#7fe1ff" transform="matrix(.454709 -.7845447 .417777 .8110211 -2.856886 13.248623)"/>
    <path d="m18.312609 9.8866615a7.9249392 7.9249392 0 1 1 -15.8498786 0 7.9249392 7.9249392 0 1 1 15.8498786 0z" fill="none" opacity=".657407" stroke="url(#e)" stroke-width=".499962" transform="matrix(.6654362 0 0 1.2332639 1.549277 -.192862)"/>
    <path d="m18.681998 15.595762a2.9268398 3.6230018 0 1 1 -5.853679 0 2.9268398 3.6230018 0 1 1 5.853679 0z" fill="#d2edf7" filter="url(#a)" transform="matrix(.8596781 .9159958 -.6540163 1.5134581 6.494065 -24.025587)"/>
    <path d="m10.725712 6.1170263a5.0549564 1.7865229 0 1 1 -10.10991257 0 5.0549564 1.7865229 0 1 1 10.10991257 0z" fill="#fff" transform="matrix(.2545787 -.4233647 .2620756 .4112539 7.858432 15.989674)"/>
  </g>
  <g opacity=".8" transform="matrix(.5727989 -.2213448 .2005244 .5189195 11.730531 9.895757)">
    <path d="m8.3092044 23c-1.0008932 0-1.1224194 0-1.807753 0-2.7624651 0-5.75513568-4.927999-5.75513568-11 0-6.072 2.99267058-11 5.75513568-11h1.807753z" fill="url(#c)"/>
    <path d="m22.480306 12.191525a9.1563044 9.1563044 0 1 1 -18.312609 0 9.1563044 9.1563044 0 1 1 18.312609 0z" fill="#7fe1ff" stroke="url(#d)" stroke-width="1.5" transform="matrix(.6399498 0 0 1.1310271 -.034887 -1.788946)"/>
    <path d="m20.207017 13.864919a7.356617 7.356617 0 1 1 -14.713234 0 7.356617 7.356617 0 1 1 14.713234 0z" fill="#42a5c9" transform="matrix(.5868157 0 0 1.06384 1.45746 -2.0538)"/>
    <path d="m10.725712 6.1170263a5.0549564 1.7865229 0 1 1 -10.10991257 0 5.0549564 1.7865229 0 1 1 10.10991257 0z" fill="#fff" transform="matrix(.3119749 -.5892705 .3211621 .5724138 1.873949 7.007667)"/>
    <path d="m21.331295 14.259586a7.1390228 5.9515977 0 1 1 -14.2780456 0 7.1390228 5.9515977 0 1 1 14.2780456 0z" fill="#7fe1ff" transform="matrix(.454709 -.7845447 .417777 .8110211 -2.856886 13.248623)"/>
    <path d="m18.312609 9.8866615a7.9249392 7.9249392 0 1 1 -15.8498786 0 7.9249392 7.9249392 0 1 1 15.8498786 0z" fill="none" opacity=".657407" stroke="url(#e)" stroke-width=".499962" transform="matrix(.6654362 0 0 1.2332639 1.549277 -.192862)"/>
    <path d="m18.681998 15.595762a2.9268398 3.6230018 0 1 1 -5.853679 0 2.9268398 3.6230018 0 1 1 5.853679 0z" fill="#d2edf7" filter="url(#a)" transform="matrix(.8596781 .9159958 -.6540163 1.5134581 6.494065 -24.025587)"/>
    <path d="m10.725712 6.1170263a5.0549564 1.7865229 0 1 1 -10.10991257 0 5.0549564 1.7865229 0 1 1 10.10991257 0z" fill="#fff" transform="matrix(.2545787 -.4233647 .2620756 .4112539 7.858432 15.989674)"/>
  </g>
  <g fill="none" stroke="#9f29ab">
    <path d="m13 6c2-2 5-3.5 9-3.5"/>
    <path d="m13.63134 3.1476829-1 3h3" stroke-linecap="round"/>
    <path d="m19.547315 4.5 2.366026-2.0980741-2.598077-1.5000009" stroke-linecap="round"/>
    <g transform="translate(1)">
      <path d="m6.5 8v11"/>
      <g stroke-linecap="round">
        <path d="m8.5 10-2-2.8264592-2 2.8264592"/>
        <path d="m8.5 17-2 2.677556-2-2.677556"/>
      </g>
    </g>
  </g>
</svg>

<?xml version="1.0" encoding="UTF-8" standalone="no"?>
<!-- Created with Inkscape (http://www.inkscape.org/) -->
<svg
   xmlns:dc="http://purl.org/dc/elements/1.1/"
   xmlns:cc="http://creativecommons.org/ns#"
   xmlns:rdf="http://www.w3.org/1999/02/22-rdf-syntax-ns#"
   xmlns:svg="http://www.w3.org/2000/svg"
   xmlns="http://www.w3.org/2000/svg"
   xmlns:xlink="http://www.w3.org/1999/xlink"
   xmlns:sodipodi="http://sodipodi.sourceforge.net/DTD/sodipodi-0.dtd"
   xmlns:inkscape="http://www.inkscape.org/namespaces/inkscape"
   width="24"
   height="24"
   id="svg2747"
   sodipodi:version="0.32"
   inkscape:version="0.46"
   version="1.0"
   sodipodi:docname="func_misalign.svg"
   inkscape:output_extension="org.inkscape.output.svg.inkscape"
   inkscape:export-filename="D:\Projects\rezonator 1.5\img\func_misalign_24.png"
   inkscape:export-xdpi="90"
   inkscape:export-ydpi="90">
  <defs
     id="defs2749">
    <filter
       inkscape:collect="always"
       id="filter4886"
       x="-0.11544522"
       width="1.2308904"
       y="-0.12398467"
       height="1.2479693">
      <feGaussianBlur
         inkscape:collect="always"
         stdDeviation="0.33319131"
         id="feGaussianBlur4888" />
    </filter>
    <linearGradient
       id="linearGradient3167">
      <stop
         style="stop-color:#0e0f55;stop-opacity:1;"
         offset="0"
         id="stop3169" />
      <stop
         style="stop-color:#6a6de8;stop-opacity:1;"
         offset="1"
         id="stop3171" />
    </linearGradient>
    <linearGradient
       id="linearGradient4613">
      <stop
         style="stop-color:#0e0f55;stop-opacity:1;"
         offset="0"
         id="stop4615" />
      <stop
         style="stop-color:#a5a6f1;stop-opacity:1;"
         offset="1"
         id="stop4617" />
    </linearGradient>
    <inkscape:perspective
       sodipodi:type="inkscape:persp3d"
       inkscape:vp_x="0 : 526.18109 : 1"
       inkscape:vp_y="0 : 1000 : 0"
       inkscape:vp_z="744.09448 : 526.18109 : 1"
       inkscape:persp3d-origin="372.04724 : 350.78739 : 1"
       id="perspective2755" />
    <linearGradient
       inkscape:collect="always"
       xlink:href="#linearGradient3167"
       id="linearGradient2787"
       gradientUnits="userSpaceOnUse"
       x1="2.2127304"
       y1="9.8866615"
       x2="18.562609"
       y2="9.8866615" />
    <linearGradient
       inkscape:collect="always"
       xlink:href="#linearGradient3167"
       id="linearGradient12671"
       gradientUnits="userSpaceOnUse"
       x1="0.74631572"
       y1="12"
       x2="8.3092041"
       y2="12" />
    <linearGradient
       inkscape:collect="always"
       xlink:href="#linearGradient4613"
       id="linearGradient12673"
       gradientUnits="userSpaceOnUse"
       x1="3.417697"
       y1="12.191525"
       x2="23.230306"
       y2="12.191525" />
    <linearGradient
       inkscape:collect="always"
       xlink:href="#linearGradient3167"
       id="linearGradient12675"
       gradientUnits="userSpaceOnUse"
       x1="2.2127304"
       y1="9.8866615"
       x2="18.562609"
       y2="9.8866615" />
    <linearGradient
       inkscape:collect="always"
       xlink:href="#linearGradient3167"
       id="linearGradient12695"
       gradientUnits="userSpaceOnUse"
       x1="0.74631572"
       y1="12"
       x2="8.3092041"
       y2="12" />
    <linearGradient
       inkscape:collect="always"
       xlink:href="#linearGradient4613"
       id="linearGradient12697"
       gradientUnits="userSpaceOnUse"
       x1="3.417697"
       y1="12.191525"
       x2="23.230306"
       y2="12.191525" />
    <linearGradient
       inkscape:collect="always"
       xlink:href="#linearGradient3167"
       id="linearGradient12699"
       gradientUnits="userSpaceOnUse"
       x1="2.2127304"
       y1="9.8866615"
       x2="18.562609"
       y2="9.8866615" />
    <inkscape:perspective
       id="perspective12708"
       inkscape:persp3d-origin="372.04724 : 350.78739 : 1"
       inkscape:vp_z="744.09448 : 526.18109 : 1"
       inkscape:vp_y="0 : 1000 : 0"
       inkscape:vp_x="0 : 526.18109 : 1"
       sodipodi:type="inkscape:persp3d" />
  </defs>
  <sodipodi:namedview
     id="base"
     pagecolor="#ffffff"
     bordercolor="#666666"
     borderopacity="1.0"
     gridtolerance="10000"
     guidetolerance="10"
     objecttolerance="10"
     inkscape:pageopacity="0.0"
     inkscape:pageshadow="2"
     inkscape:zoom="31.678384"
     inkscape:cx="13.382792"
     inkscape:cy="12.653707"
     inkscape:document-units="px"
     inkscape:current-layer="layer1"
     showgrid="true"
     inkscape:window-width="1920"
     inkscape:window-height="1144"
     inkscape:window-x="-4"
     inkscape:window-y="-4">
    <inkscape:grid
       type="xygrid"
       id="grid2757"
       visible="true"
       enabled="true" />
  </sodipodi:namedview>
  <metadata
     id="metadata2752">
    <rdf:RDF>
      <cc:Work
         rdf:about="">
        <dc:format>image/svg+xml</dc:format>
        <dc:type
           rdf:resource="http://purl.org/dc/dcmitype/StillImage" />
      </cc:Work>
    </rdf:RDF>
  </metadata>
  <g
     inkscape:label="Layer 1"
     inkscape:groupmode="layer"
     id="layer1">
    <path
       style="fill:none;fill-rule:evenodd;stroke:#182e6d;stroke-width:1px;stroke-linecap:butt;stroke-linejoin:miter;stroke-opacity:1"
       d="M 0,14.5 L 25,14.5"
       id="path5856"
       sodipodi:nodetypes="cc" />
    <g
       id="g12655"
       transform="matrix(0.6140783,0,0,0.556316,-0.4582963,0.443684)">
      <path
         sodipodi:nodetypes="cssscc"
         id="path3559"
         d="M 8.3092044,23 C 7.3083112,23 7.186785,23 6.5014514,23 C 3.7389863,23 0.74631572,18.072001 0.74631572,12 C 0.74631572,5.928 3.7389863,1 6.5014514,1 C 7.3247921,1 7.3083112,1 8.3092044,1 C 8.3092044,11 8.3092044,14 8.3092044,23 z"
         style="fill:url(#linearGradient12671);fill-opacity:1;fill-rule:nonzero;stroke:none;stroke-width:0.57363141;stroke-miterlimit:4;stroke-opacity:1" />
      <path
         transform="matrix(0.6399498,0,0,1.1310271,-3.4887379e-2,-1.7889458)"
         d="M 22.480306,12.191525 A 9.1563044,9.1563044 0 1 1 4.167697,12.191525 A 9.1563044,9.1563044 0 1 1 22.480306,12.191525 z"
         sodipodi:ry="9.1563044"
         sodipodi:rx="9.1563044"
         sodipodi:cy="12.191525"
         sodipodi:cx="13.324001"
         id="path2395"
         style="fill:#7fe1ff;fill-opacity:1;fill-rule:nonzero;stroke:url(#linearGradient12673);stroke-width:1.5;stroke-miterlimit:4;stroke-dasharray:none;stroke-opacity:1"
         sodipodi:type="arc" />
      <path
         transform="matrix(0.5868157,0,0,1.06384,1.4574599,-2.0537999)"
         d="M 20.207017,13.864919 A 7.356617,7.356617 0 1 1 5.493783,13.864919 A 7.356617,7.356617 0 1 1 20.207017,13.864919 z"
         sodipodi:ry="7.356617"
         sodipodi:rx="7.356617"
         sodipodi:cy="13.864919"
         sodipodi:cx="12.8504"
         id="path4641"
         style="fill:#42a5c9;fill-opacity:1;fill-rule:nonzero;stroke:none;stroke-width:0.5;stroke-miterlimit:4;stroke-dasharray:none;stroke-opacity:1"
         sodipodi:type="arc" />
      <path
         transform="matrix(0.3119749,-0.5892705,0.3211621,0.5724138,1.8739485,7.0076665)"
         d="M 10.725712,6.1170263 A 5.0549564,1.7865229 0 1 1 0.61579943,6.1170263 A 5.0549564,1.7865229 0 1 1 10.725712,6.1170263 z"
         sodipodi:ry="1.7865229"
         sodipodi:rx="5.0549564"
         sodipodi:cy="6.1170263"
         sodipodi:cx="5.6707559"
         id="path4878"
         style="fill:#ffffff;fill-opacity:1;fill-rule:nonzero;stroke:none;stroke-width:0.58099997;stroke-miterlimit:4;stroke-dasharray:none;stroke-opacity:1"
         sodipodi:type="arc" />
      <path
         transform="matrix(0.454709,-0.7845447,0.417777,0.8110211,-2.8568863,13.248623)"
         d="M 21.331295,14.259586 A 7.1390228,5.9515977 0 1 1 7.0532494,14.259586 A 7.1390228,5.9515977 0 1 1 21.331295,14.259586 z"
         sodipodi:ry="5.9515977"
         sodipodi:rx="7.1390228"
         sodipodi:cy="14.259586"
         sodipodi:cx="14.192272"
         id="path4645"
         style="fill:#7fe1ff;fill-opacity:1;fill-rule:nonzero;stroke:none;stroke-width:0.5;stroke-miterlimit:4;stroke-dasharray:none;stroke-opacity:1"
         sodipodi:type="arc" />
      <path
         sodipodi:type="arc"
         style="opacity:0.65740739;fill:none;fill-opacity:1;fill-rule:nonzero;stroke:url(#linearGradient12675);stroke-width:0.49996206;stroke-miterlimit:4;stroke-dasharray:none;stroke-opacity:1"
         id="path4625"
         sodipodi:cx="10.38767"
         sodipodi:cy="9.8866615"
         sodipodi:rx="7.9249392"
         sodipodi:ry="7.9249392"
         d="M 18.312609,9.8866615 A 7.9249392,7.9249392 0 1 1 2.4627304,9.8866615 A 7.9249392,7.9249392 0 1 1 18.312609,9.8866615 z"
         transform="matrix(0.6654362,0,0,1.2332639,1.5492774,-0.1928624)" />
      <path
         transform="matrix(0.8596781,0.9159958,-0.6540163,1.5134581,6.4940652,-24.025587)"
         d="M 18.681998,15.595762 A 2.9268398,3.6230018 0 1 1 12.828319,15.595762 A 2.9268398,3.6230018 0 1 1 18.681998,15.595762 z"
         sodipodi:ry="3.6230018"
         sodipodi:rx="2.9268398"
         sodipodi:cy="15.595762"
         sodipodi:cx="15.755158"
         id="path4623"
         style="fill:#d2edf7;fill-opacity:1;fill-rule:nonzero;stroke:none;stroke-width:0.5;stroke-miterlimit:4;stroke-dasharray:none;stroke-opacity:1;filter:url(#filter4886)"
         sodipodi:type="arc" />
      <path
         sodipodi:type="arc"
         style="fill:#ffffff;fill-opacity:1;fill-rule:nonzero;stroke:none;stroke-width:0.58099997;stroke-miterlimit:4;stroke-dasharray:none;stroke-opacity:1"
         id="path4884"
         sodipodi:cx="5.6707559"
         sodipodi:cy="6.1170263"
         sodipodi:rx="5.0549564"
         sodipodi:ry="1.7865229"
         d="M 10.725712,6.1170263 A 5.0549564,1.7865229 0 1 1 0.61579943,6.1170263 A 5.0549564,1.7865229 0 1 1 10.725712,6.1170263 z"
         transform="matrix(0.2545787,-0.4233647,0.2620756,0.4112539,7.8584317,15.989674)" />
    </g>
    <g
       transform="matrix(0.5727989,-0.2213448,0.2005244,0.5189195,11.730531,9.8957573)"
       id="g12677"
       style="opacity:0.8">
      <path
         style="fill:url(#linearGradient12695);fill-opacity:1;fill-rule:nonzero;stroke:none;stroke-width:0.57363140999999995;stroke-miterlimit:4;stroke-opacity:1"
         d="M 8.3092044,23 C 7.3083112,23 7.186785,23 6.5014514,23 C 3.7389863,23 0.74631572,18.072001 0.74631572,12 C 0.74631572,5.928 3.7389863,1 6.5014514,1 C 7.3247921,1 7.3083112,1 8.3092044,1 C 8.3092044,11 8.3092044,14 8.3092044,23 z"
         id="path12679"
         sodipodi:nodetypes="cssscc" />
      <path
         sodipodi:type="arc"
         style="fill:#7fe1ff;fill-opacity:1;fill-rule:nonzero;stroke:url(#linearGradient12697);stroke-width:1.50000000000000000;stroke-miterlimit:4;stroke-dasharray:none;stroke-opacity:1"
         id="path12681"
         sodipodi:cx="13.324001"
         sodipodi:cy="12.191525"
         sodipodi:rx="9.1563044"
         sodipodi:ry="9.1563044"
         d="M 22.480306,12.191525 A 9.1563044,9.1563044 0 1 1 4.167697,12.191525 A 9.1563044,9.1563044 0 1 1 22.480306,12.191525 z"
         transform="matrix(0.6399498,0,0,1.1310271,-3.4887379e-2,-1.7889458)" />
      <path
         sodipodi:type="arc"
         style="fill:#42a5c9;fill-opacity:1;fill-rule:nonzero;stroke:none;stroke-width:0.50000000000000000;stroke-miterlimit:4;stroke-dasharray:none;stroke-opacity:1"
         id="path12683"
         sodipodi:cx="12.8504"
         sodipodi:cy="13.864919"
         sodipodi:rx="7.356617"
         sodipodi:ry="7.356617"
         d="M 20.207017,13.864919 A 7.356617,7.356617 0 1 1 5.493783,13.864919 A 7.356617,7.356617 0 1 1 20.207017,13.864919 z"
         transform="matrix(0.5868157,0,0,1.06384,1.4574599,-2.0537999)" />
      <path
         sodipodi:type="arc"
         style="fill:#ffffff;fill-opacity:1;fill-rule:nonzero;stroke:none;stroke-width:0.58099997000000003;stroke-miterlimit:4;stroke-dasharray:none;stroke-opacity:1"
         id="path12685"
         sodipodi:cx="5.6707559"
         sodipodi:cy="6.1170263"
         sodipodi:rx="5.0549564"
         sodipodi:ry="1.7865229"
         d="M 10.725712,6.1170263 A 5.0549564,1.7865229 0 1 1 0.61579943,6.1170263 A 5.0549564,1.7865229 0 1 1 10.725712,6.1170263 z"
         transform="matrix(0.3119749,-0.5892705,0.3211621,0.5724138,1.8739485,7.0076665)" />
      <path
         sodipodi:type="arc"
         style="fill:#7fe1ff;fill-opacity:1;fill-rule:nonzero;stroke:none;stroke-width:0.50000000000000000;stroke-miterlimit:4;stroke-dasharray:none;stroke-opacity:1"
         id="path12687"
         sodipodi:cx="14.192272"
         sodipodi:cy="14.259586"
         sodipodi:rx="7.1390228"
         sodipodi:ry="5.9515977"
         d="M 21.331295,14.259586 A 7.1390228,5.9515977 0 1 1 7.0532494,14.259586 A 7.1390228,5.9515977 0 1 1 21.331295,14.259586 z"
         transform="matrix(0.454709,-0.7845447,0.417777,0.8110211,-2.8568863,13.248623)" />
      <path
         transform="matrix(0.6654362,0,0,1.2332639,1.5492774,-0.1928624)"
         d="M 18.312609,9.8866615 A 7.9249392,7.9249392 0 1 1 2.4627304,9.8866615 A 7.9249392,7.9249392 0 1 1 18.312609,9.8866615 z"
         sodipodi:ry="7.9249392"
         sodipodi:rx="7.9249392"
         sodipodi:cy="9.8866615"
         sodipodi:cx="10.38767"
         id="path12689"
         style="opacity:0.65740739000000004;fill:none;fill-opacity:1;fill-rule:nonzero;stroke:url(#linearGradient12699);stroke-width:0.49996205999999999;stroke-miterlimit:4;stroke-dasharray:none;stroke-opacity:1"
         sodipodi:type="arc" />
      <path
         sodipodi:type="arc"
         style="fill:#d2edf7;fill-opacity:1;fill-rule:nonzero;stroke:none;stroke-width:0.50000000000000000;stroke-miterlimit:4;stroke-dasharray:none;stroke-opacity:1;filter:url(#filter4886)"
         id="path12691"
         sodipodi:cx="15.755158"
         sodipodi:cy="15.595762"
         sodipodi:rx="2.9268398"
         sodipodi:ry="3.6230018"
         d="M 18.681998,15.595762 A 2.9268398,3.6230018 0 1 1 12.828319,15.595762 A 2.9268398,3.6230018 0 1 1 18.681998,15.595762 z"
         transform="matrix(0.8596781,0.9159958,-0.6540163,1.5134581,6.4940652,-24.025587)" />
      <path
         transform="matrix(0.2545787,-0.4233647,0.2620756,0.4112539,7.8584317,15.989674)"
         d="M 10.725712,6.1170263 A 5.0549564,1.7865229 0 1 1 0.61579943,6.1170263 A 5.0549564,1.7865229 0 1 1 10.725712,6.1170263 z"
         sodipodi:ry="1.7865229"
         sodipodi:rx="5.0549564"
         sodipodi:cy="6.1170263"
         sodipodi:cx="5.6707559"
         id="path12693"
         style="fill:#ffffff;fill-opacity:1;fill-rule:nonzero;stroke:none;stroke-width:0.58099997000000003;stroke-miterlimit:4;stroke-dasharray:none;stroke-opacity:1"
         sodipodi:type="arc" />
    </g>
    <path
       style="fill:none;fill-rule:evenodd;stroke:#9f29ab;stroke-width:1px;stroke-linecap:butt;stroke-linejoin:miter;stroke-opacity:1"
       d="M 13,6 C 15,4 18,2.5 22,2.5"
       id="path13230"
       sodipodi:nodetypes="cc" />
    <path
       style="fill:none;fill-rule:evenodd;stroke:#9f29ab;stroke-width:1px;stroke-linecap:round;stroke-linejoin:miter;stroke-opacity:1"
       d="M 13.63134,3.1476829 L 12.63134,6.1476829 L 15.63134,6.1476829"
       id="path13232" />
    <path
       id="path13234"
       d="M 19.547315,4.5 L 21.913341,2.4019259 L 19.315264,0.901925"
       style="fill:none;fill-rule:evenodd;stroke:#9f29ab;stroke-width:1px;stroke-linecap:round;stroke-linejoin:miter;stroke-opacity:1" />
    <g
       id="g13262"
       transform="translate(1,0)">
      <path
         id="path13236"
         d="M 6.5,8 L 6.5,19"
         style="fill:none;fill-rule:evenodd;stroke:#9f29ab;stroke-width:1px;stroke-linecap:butt;stroke-linejoin:miter;stroke-opacity:1" />
      <path
         sodipodi:nodetypes="ccc"
         style="fill:none;fill-rule:evenodd;stroke:#9f29ab;stroke-width:1px;stroke-linecap:round;stroke-linejoin:miter;stroke-opacity:1"
         d="M 8.5,10 L 6.5,7.1735408 L 4.5,10"
         id="path13238" />
      <path
         sodipodi:nodetypes="ccc"
         id="path13240"
         d="M 8.5,17 L 6.5,19.677556 L 4.5,17"
         style="fill:none;fill-rule:evenodd;stroke:#9f29ab;stroke-width:1px;stroke-linecap:round;stroke-linejoin:miter;stroke-opacity:1" />
    </g>
  </g>
</svg>
